X: 1691
T: Anthony Frawley's
R: jig
M: 6/8
K: Gmajor
|:GED GAB|GED G3|GED GAB|dBA B3|
GED GAB|def g3|aba geg|edB A3:|
|:dBd edB|def gfe|dBd edB|ABA ABc|
dBd edB|def g3|aba geg|edB A3:|

